X:462
T: Wiederbegegnung am Brunnen (173b), S. 382
N: T0350
O: Luxemburg
S: Singendes Volk, Esch-Alzette, 1937 posth.]
N: Rammeldingen, J.P. Gloden, 25.2.1934
R: Tage-. Wchter-, Fenstergang-, Stndchenlieder, Liebeslied]
M: 4/4
L: 1/8
K: F
C2 | F2F2G2c2 | AAGAF2
F2 | FFFFG2c2 | A3GF2
c2 | A2c2c2dc | cBBAB2
B2 | G2B2G2A2 | AAAAG2
CC | F2F2A2G2 | G2c2c2AF | G2c2F2

@@@ Tune index: 8516
